!!!OTL: This Is the Way
!!!COM: unknown
!!!ODT: unknown
!!!YOR: self
!!!YOY: 2001
!!!AST: Children's song
!!!YEC: Brian Luke, 2001
**kern	**harm
*k[]	*k[]
*M6/8	*M6/8
*C:	*C:
*>A	*>A
=1	=1
8c	I
8c	.
8c	.
4c	.
8e	.
=2	=2
4g	.
8e	.
4.c	.
=3	=3
4d	V
8d	.
4.d	.
=4	=4
4B	V7
8A	.
4.G	.
=5	=5
8c	I
8c	.
8c	.
4c	.
8e	.
=6	=6
4g	.
8e	.
4.c	.
=7	=7
4d	V
8d	.
8G	V7
8A	.
8B	.
=8	=8
4.c	I;
8c	.
4r	.
*-	*-
